aasupatri/images/LOGO.svg

<?xml version="1.0" encoding="UTF-8"?>
<svg width="512px" height="512px" viewBox="0 0 512 512" version="1.1" xmlns="http://www.w3.org/2000/svg" xmlns:xlink="http://www.w3.org/1999/xlink">
    <!-- Generator: Sketch 53 (72520) - https://sketchapp.com -->
    <title>LOGO</title>
    <desc>Created with Sketch.</desc>
    <g id="LOGO" stroke="none" stroke-width="1" fill="none" fill-rule="evenodd">
        <g id="Group-7" transform="translate(83.000000, 32.000000)">
            <path d="M179.877618,462.477459 C250.447936,368.639899 296.166315,307.526147 317.032756,279.136202 C338.386449,250.083324 351,214.214799 351,175.401868 C351,78.5300912 272.425974,0 175.5,0 C78.5740264,0 0,78.5300912 0,175.401868 C0,215.842572 13.6937339,253.086721 36.6997295,282.755293 C57.6190989,309.732949 102.295212,370.057076 170.72807,462.477459 C172.306081,464.608605 178.428886,464.403843 179.877618,462.477459 Z" id="Oval" fill="#0080D1"></path>
            <g id="Group-6" transform="translate(70.200000, 71.937984)">
                <g id="Group-5" fill="#FFFFFF">
                    <path d="M147.42,63.1255816 L201.6,63.1255816 C206.570563,63.1255816 210.600001,67.155019 210.600001,72.125582 L210.600001,138.293023 C210.600001,143.263586 206.570563,147.293023 201.6,147.293023 L147.42,147.293023 L147.42,201.418604 C147.42,206.389167 143.390563,210.418605 138.42,210.418605 L72.1800004,210.418605 C67.2094374,210.418605 63.18,206.389167 63.18,201.418604 L63.18,147.293023 L9.00000013,147.293023 C4.02943719,147.293023 -2.23089458e-07,143.263586 -2.23089458e-07,138.293023 L-2.23089458e-07,72.125582 C-2.23089458e-07,67.155019 4.02943719,63.1255816 9.00000013,63.1255816 L63.18,63.1255816 L63.18,9.00000036 C63.18,4.02943741 67.2094374,9.130776e-16 72.1800004,0 L138.42,0 C143.390563,7.91641588e-15 147.42,4.02943741 147.42,9.00000036 L147.42,63.1255816 Z" id="Combined-Shape"></path>
                </g>
                <g id="Group-2" transform="translate(53.100000, 63.844961)" fill="#0080D1">
                    <g id="Group" transform="translate(0.183454, 0.255453)">
                        <path d="M5.45001883,27.9096658 C20.5218764,34.7254599 31.7860679,44.9317967 39.2425935,58.5286761 C46.8498676,72.4004437 49.7965725,88.5295553 48.0827082,106.916011 L48.0827361,106.916014 C47.8610114,109.294691 49.6095672,111.402734 51.9882448,111.624458 C52.1217059,111.636899 52.2556731,111.643129 52.3897128,111.643129 L52.3897128,111.643129 C54.7243319,111.643129 56.6169147,109.750546 56.6169147,107.415927 C56.6169147,107.252638 56.6074534,107.089487 56.5885784,106.927293 C54.4808825,88.8154881 57.0023224,73.1365865 64.1529248,59.8905852 C71.313212,46.6266435 83.2478883,35.5564188 99.9569537,26.679911 L99.9569526,26.6799089 C102.079738,25.5522026 102.886408,22.9171587 101.758702,20.7943737 C101.685792,20.657129 101.605584,20.5238879 101.518422,20.3952229 L101.518422,20.3952229 C100.302197,18.5998845 97.8608423,18.1304204 96.0655039,19.3466455 C95.8399598,19.499437 95.6309294,19.6752866 95.4417906,19.8713528 C81.0910839,34.7476225 66.7403984,42.1857676 52.3897128,42.1857676 C38.169964,42.1857676 23.9502152,34.8827357 9.73046644,20.276672 L9.73048511,20.2766539 C8.15431223,18.6576603 5.56411806,18.6229473 3.94512451,20.1991202 C3.67822017,20.4589652 3.44805318,20.7540441 3.26100372,21.0761774 L3.26100372,21.0761774 C1.92010569,23.3854484 2.70512711,26.3444951 5.01439814,27.6853931 C5.15572582,27.7674563 5.30112321,27.8423014 5.45003041,27.9096402 Z" id="Path-2"></path>
                        <ellipse id="Oval" cx="52.3897128" cy="12.337261" rx="11.9761208" ry="11.9167041"></ellipse>
                    </g>
                </g>
            </g>
        </g>
    </g>
</svg>

<?xml version="1.0" encoding="utf-8"?>
<!-- Generator: Adobe Illustrator 21.1.0, SVG Export Plug-In . SVG Version: 6.00 Build 0)  -->
<svg version="1.1" id="Layer_1" xmlns="http://www.w3.org/2000/svg" xmlns:xlink="http://www.w3.org/1999/xlink" x="0px" y="0px"
	 viewBox="0 0 512 512" style="enable-background:new 0 0 512 512;" xml:space="preserve">
<style type="text/css">
	.st0{fill:#0080d1;}
	.st1{fill:#FFFFFF;}
</style>
<title>LOGO</title>
<desc>Created with Sketch.</desc>
<g id="LOGO">
	<g id="Group-7" transform="translate(83.000000, 32.000000)">
		<path id="Oval" class="st0" d="M179.9,462.5c70.6-93.8,116.3-155,137.2-183.3c21.4-29.1,34-64.9,34-103.7
			C351,78.5,272.4,0,175.5,0S0,78.5,0,175.4c0,40.4,13.7,77.7,36.7,107.4c20.9,27,65.6,87.3,134,179.7
			C172.3,464.6,178.4,464.4,179.9,462.5z"/>
		<g id="Group-6" transform="translate(70.200000, 71.937984)">
			<g id="Group-5">
				<path id="Combined-Shape" class="st1" d="M147.4,63.1h54.2c5,0,9,4,9,9v66.2c0,5-4,9-9,9h-54.2v54.1c0,5-4,9-9,9H72.2
					c-5,0-9-4-9-9v-54.1H9c-5,0-9-4-9-9V72.1c0-5,4-9,9-9h54.2V9c0-5,4-9,9-9h66.2c5,0,9,4,9,9V63.1z"/>
			</g>
			<g id="Group-2" transform="translate(53.100000, 63.844961)">
				<g id="Group" transform="translate(0.183454, 0.255453)">
					<path id="Path-2" class="st0" d="M5.5,27.9c15.1,6.8,26.3,17,33.8,30.6c7.6,13.9,10.6,30,8.8,48.4l0,0
						c-0.2,2.4,1.5,4.5,3.9,4.7c0.1,0,0.3,0,0.4,0l0,0c2.3,0,4.2-1.9,4.2-4.2c0-0.2,0-0.3,0-0.5c-2.1-18.1,0.4-33.8,7.6-47
						c7.2-13.3,19.1-24.3,35.8-33.2v0c2.1-1.1,2.9-3.8,1.8-5.9c-0.1-0.1-0.2-0.3-0.2-0.4l0,0c-1.2-1.8-3.7-2.3-5.5-1
						c-0.2,0.2-0.4,0.3-0.6,0.5C81.1,34.7,66.7,42.2,52.4,42.2c-14.2,0-28.4-7.3-42.7-21.9l0,0c-1.6-1.6-4.2-1.7-5.8-0.1
						c-0.3,0.3-0.5,0.6-0.7,0.9l0,0c-1.3,2.3-0.6,5.3,1.8,6.6C5.2,27.8,5.3,27.8,5.5,27.9L5.5,27.9z"/>
					<ellipse id="Oval_1_" class="st0" cx="52.4" cy="12.3" rx="12" ry="11.9"/>
				</g>
			</g>
		</g>
	</g>
</g>
</svg>
